X: 6450
T: Cat And The Bacon, The
R: jig
M: 6/8
K: Dmajor
"D" Add Add|"A7" e/f/ed c2 A|"D" Add Add|"A7" e/f/ed cAG|
"D" Add Add|"A7" e/f/ed c2 d|"A" ecA"G" G2 E|1 "D" FDD D3:|2 "D" FDD D2 f/g/||
"D" a2 a "G"gag|"D" fed "A"ecA|Ac/B/A c2 d|"A" cAd cAG|
"D" Add Add"A7"|e/f/ed c2 d|eaa gec|1 "D" edc d2 f/g/:|2 "D" edc d3:|

